X: 52
T:Briggham Hornpipe. WI.052
M:C
Q:160
C:"by W.Irwin"
S:Wm Irwin, Folio MS, c1850. AGG's Transcription
R:Hornpipe
O:England
A:Lake District
Z:vmp.Chris Partington.2005
K:F
c/d/e|fefc abag|fefd cfcA|BABG dBGF|((3EFG) ((3FED) C2c/d/e|!
fefc abag|fefd cfcA|BGdB AGFE|G2F2 F2:|!
|:EF|G^FGA BAdc|Ac^fc afcA|Bbca BgAf|((3efg) ((3fed) ((3cdc) ((3BAG)|!
FAcA fcaf|Bdge bgec|fcdB AGFE|G2F2 F2:|]
